X:57    
T:Reel des Esquimaux
C:Isidore Soucy
I:Trad Qu&amp;eacute;becois
Q:1/4=122    
M:4/4     
L:1/8
P:IABAC  
K:G
P:I
(3D/E/F/
P:A
|:G/F/G/A/ G/E/D/C/ B,/G,/A,/C/ B,/G,/G,/G,/ |
B,/D/G/B/ c/B/A/G/ F/G/A/B/ A(3D/E/F/|G/F/G/A/ G/E/D/C/ B,/G,/A,/C/ B,/G,/G,/G,/ |
|1 B,/D/G/B/ c/B/A/G/ F/D/E/F/ G(3D/E/F/ :|2 B,/D/G/B/ c/B/A/G/ F/D/E/F/ G/A/B/c/:|
d3/2e/ d/c/B/d/ g3/2a/ g/e/d/c/ |B/G/B/d/ c/B/A/G/ F/G/A/B/ AB/c/ |
d3/2e/ d/c/B/d/ g/f/g/a/ g/e/d/c/ |1B/G/B/d/ c/B/A/G/ F/D/E/F/ G/A/B/c/ :|
P:B
|2B/G/B/d/ c/B/A/G/ F/D/E/F/ G/D/E/F/ |
P:C
B/G/B/d/ c/B/A/G/ F/D/E/F/ G/G3/2|
